X:1
T:8 Lieder und Gesänge, Op.59
T:Regenlied
T:8 Lieder und Gesänge, Op.59
T:3. Regenlied
T:Klaus Groth
T:Johannes Brahms
T:Creative Commons copyright waiver (CC0 1.0 Universal)
T:Creative Commons copyright waiver (CC0 1.0 Universal)
T:Creative Commons copyright waiver (CC0 1.0 Universal)
T:Creative Commons copyright waiver (CC0 1.0 Universal)
T:Creative Commons copyright waiver (CC0 1.0 Universal)
T:Creative Commons copyright waiver (CC0 1.0 Universal)
T:Creative Commons copyright waiver (CC0 1.0 Universal)
T:Creative Commons copyright waiver (CC0 1.0 Universal)
C:Johannes Brahms
Z:Klaus Groth
Z:Creative Commons copyright waiver (CC0 1.0 Universal)
L:1/8
M:2/2
K:A
V:1 treble nm="Voice"
V:1
 z4 | z8 | z8 | z8 | z4 c3 c | c6 B2 | (d2 f2) (e2 d2) | c6 B2 | (c2 d2) (A2 G2) | c6 B2 | A6 G2 | %11
w: ||||Wal- le,|Re- gen,|wal- * le *|nie- der,|we- * cke *|mir die|Träu- me|
 G4 F2 z2 | z4 d3 d | d6 B2 | (d2 =c2) (B2 A2) | ^A4 B2 z2 | z4 d3 d | c6 c2 | f6 A2 | G4 c2 z2 | %20
w: wie- der,|die ich|in der|Kind- * heit *|träum- te,|wenn das|Nass im|San- de|schäum- te!|
 z8 | z8 | z8 | z8 | z4 c3 c | c6 B2 | (d2 f2) (e2 d2) | c6 B2 | (c2 d2) (A2 G2) | c6 B2 | A6 G2 | %31
w: ||||Wenn die|mat- te|Som- * mer- *|schwü- le|läs- * sig *|stritt mit|fri- scher|
 G4 F2 z2 | z4 F2 F2 | B6 B2 | (B2 ^B2) (c2 A2) | A4 G2 z2 | z4 B2 B2 | e6 e2 | (e2 ^e2) (f2 d2) | %39
w: Küh- le,|und die|blan- ken|Blät- * ter *|tau- ten,|und die|Saa- ten|dunk- * ler *|
 d4 c2 c2 | d4 e4 | (^e4 f4) | (=e4 d4) | c8 | B4 z4 | z4 (Ac) (ce) | e3 B A3 c | e3 B (Ac) (ce) | %48
w: blau- ten, die|Saa- ten|dunk- *|ler *|blau-|ten.|Wel- * che *|Won- ne, in dem|Flie- ssen dann * zu *|
 f3 c ^d3 B | f3 e (GB) (B=d) | d3 B d3 B | d3 B (Bd) (d=f) | =f3 d f3 d | =f3 d z4 | =g3 e =c3 A | %55
w: stehn mit nack- ten|Fü- ssen, an * dem *|Gra- se hin zu|strei- fen und * den *|Schaum mit Hän- den|grei- fen,|o- der mit den|
 =f3 d B3 =G | =c3 ^c d4- | d2 ^d2 e4- | e2 e2 =f4- | =f4 e2 z2 | z4 (A^c) (ce) | ^f3 d (Bd) (df) | %62
w: hei- ssen Wan- gen|kal- te Trop-|* fen auf-|* zu- fan-|* gen,|und * den *|neu- er- wach- * ten *|
 ^g3 e c2 e2 | a3 e d2 c2 | c4 B2 z2 | z4 f2 e2 | d2 c2 B2 A2 | (d6 G2) | A4 z4 | z8 | z4 F2 A2 || %71
w: Düf- ten sei- ne|Kin- der- brust zu|lüf- ten,|sei- ne|Kin- der- brust zu|lüf- *|ten!||Wie die|
[K:D][M:3/2] d4 A4 B2 c2 | d4 A4 d2 e2 | f4 c4 d2 B2 | f4 c4 c2 c2 | ^d6 d2 ^g2 f2 | f4 ^e4 e2 e2 | %77
w: Kel- che, die da|trof- fen, stand die|See- le at- mend|of- fen, wie die|Blu- men, düf- te-|trun- ken, in dem|
 f6 d2 c2 B2 | ^G4 A4 z4 | z12 | z4 z4 F2 A2 | d4 A4 B2 c2 | d4 A4 d2 e2 | f6 c2 d2 B2 | %84
w: Him- mels- tau ver-|sun- ken.||Schau- ernd|kühl- te je- der|Trop- fen tief bis|an des Her- zens|
 f4 c4 c2 c2 | ^d6 d2 ^g2 f2 | f4 ^e4 e2 e2 | f6 d2 c2 B2 | B4 A4 c2 e2 ||[M:2/2] f6 d2 | _B6 =G2 | %91
w: Klop- fen, und der|Schöp- fung hei- lig|We- ben drang bis|ins ver- borg- ne|Le- ben, drang bis|ins ver-|borg- ne|
 F4 A2 z2 | z8 | z8 | z8 | z4 c3 c ||[K:A] c6 B2 | (d2 f2) (e2 d2) | c6 B2 | (c2 d2) (A2 G2) | %100
w: Le- ben.||||Wal- le,|Re- gen,|wal- * le *|nie- der,|we- * cke *|
 c6 B2 | A6 G2 | G4 F2 z2 | z4 d3 d | d6 B2 | (d2 =c2) (B2 A2) | ^A4 B2 z2 | z4 d3 d | c6 c2 | %109
w: mei- ne|al- ten|Lie- der,|die wir|in der|Tü- * re *|san- gen,|wenn die|Trop- fen|
 f6 A2 | G4 c2 z2 | z8 | z8 | z8 | z8 | z2 c4 c2 | c6 B2 | (d2 f2) (e2 d2) | c6 B2 | %119
w: drau- ssen|klan- gen!|||||Möch- te|ih- nen|wie- * der *|lau- schen,|
 (c2 d2) (A2 G2) | c6 B2 | A6 G2 | G4 F2 z2 | z2 d4 d2 | d6 B2 | (d2 =c2) (B2 A2) | ^A4 B2 z2 | %127
w: ih- * rem *|sü- ssen,|feuch- ten|Rau- schen,|mei- ne|See- le|sanft * be- *|tau- en|
 z4 d2 d2 | d6 c2 | c6 B2 | ^A8 | G2 z2 ^d4 | f8- | f4 c4 | f8- | f4 c4 | (=d8- | d4 ^E4) | F4 z4 | %139
w: mit dem|from- men|Kin- der-|grau-|en, dem|from-|* men|Kin-|* der-|grau-||en.|
 z8 | z8 | z8 | z8 | z8 | z8 | z8 | z8 | !fermata!z8 |] %148
w: |||||||||

